X: 1
T: Rowan Tree, The
Z: ceolachan
S: https://thesession.org/tunes/12278#setting12278
R: strathspey
M: 4/4
L: 1/8
K: Gmaj
|: G>A |B2 B>A B<dd>g | e>de<g e2 d>G |\
B2 B>A B<dd>g | e<Bd>B G2- :|
G>B |d<gg>f f<ee>g | d<Gd>B A2 A>B |\
d<gg>f f<ee>g | d<Gd>B G2 G>B |
d<gg>f f<ee>g | d>ed>B B<AA>G |\
B2 B>A B<dd<g | e<gd>B G2- |]
